小程序/微信支付.svg

<svg width="980" height="265">
  <g fill="none" fill-rule="nonzero">
    <path fill="#1AAD19" d="M108.9 167c-1.4.7-2.9 1.1-4.5 1.1-3.7 0-7-2.1-8.7-5.1l-.7-1.4-27.2-59.8c-.3-.7-.5-1.4-.5-2.1 0-2.8 2.2-5 5-5 1.1 0 2.2.4 3 1l32.2 22.9c2.4 1.5 5.2 2.4 8.2 2.4 1.8 0 3.5-.3 5.1-.9L272 52.8C244.9 20.9 200.3 0 149.7 0 67-.1 0 55.8 0 124.7c0 37.6 20.2 71.4 51.7 94.3 2.5 1.8 4.2 4.8 4.2 8.1 0 1.1-.2 2.1-.5 3.2-2.5 9.4-6.6 24.5-6.7 25.2-.3 1.2-.8 2.4-.8 3.6 0 2.8 2.2 5 5 5 1.1 0 2-.4 2.9-.9l32.8-18.9c2.5-1.4 5.1-2.3 7.9-2.3 1.5 0 3 .2 4.4.7 15.3 4.4 31.8 6.8 48.9 6.8 82.7 0 149.7-55.8 149.7-124.7 0-20.9-6.2-40.5-17-57.8L110 166.4l-1.1.6z"/>
    <path fill="#4D4D4D" d="M579.7 138.3h83.9v7.1h-83.9zM579.7 161.9h83.9v7.7h-83.9zM581.9 235.6h79.6v-45.2h-79.6v45.2zm71.9-7.1h-64.3v-31h64.3v31zM561.4 94.6c-7.5 26.4-18.1 49.6-31.9 69.7l4.2 7.3c4.9-7.2 9.8-15.4 14.7-24.4v89h7.7v-105c4.9-10.5 9-21.3 12.4-32.5l-7.1-4.1zM622.3 114.1l6-3.5c-1.2-2.7-6.2-13.1-7.8-16.6l-7.1 4.1c2.5 4.7 4.9 9.5 7.1 14.2.4.8.6 1.4.6 1.8h-49.6v7.7h101.1v-7.7h-50.3zM432.8 96.6h7.1v37.8h14.8v-26.6h7.1v33.7h-51.4v-33.7h7.1v26.6h15.4V96.6zM412.7 156.9h45.5v7.1h-45.5zM464.6 198.1l-11.8 10.1v-28.8h-38.4v11.2c1.1 15.9-2.8 27.1-11.8 33.6l4.1 7.1c11-9.1 16.1-21.7 15.3-37.8v-7.1h23.6v17.1c-.3 5.8-.6 7.7-2.6 10.6l4.4 7.7c3.9-3.2 10.8-9 20.6-17.7l-3.4-6zM399.5 95.2c-7.3 15-16.2 27.3-26.5 37l4.3 7.5c11.8-11.8 21.4-25.4 28.9-40.7l-6.7-3.8zM398.5 133.9c-7.1 17.6-16.3 32.9-27.6 45.9l4.1 7.1c4.7-5.5 9.1-11.1 13.4-16.9v66.2h7.1v-78c3.5-6.2 6.8-12.9 9.9-20.3l-6.9-4z"/>
    <path fill="#4D4D4D" d="M517.2 129.7v-7.1h-33.7c2.9-8.6 6.3-18.9 7.4-27.8h-7.4c-4.9 23.2-12.3 42.7-22 58.6l4.5 7.8c.8-1.6 1.9-3.7 3.3-6.6 1.6-2.8 2.8-4.9 3.5-6.5 2.4 20.9 6.5 37.4 12.4 49.6-5.6 9.8-14.2 19.7-25.5 29.8l4.3 7.4c12.2-11.4 20.5-21.3 24.8-29.5 5.1 9.3 13.8 20.2 23.5 30l4.3-7.5c-10.1-9.6-18.8-20.3-23.6-29.6 8.7-15.8 14-38.6 16-68.6h8.2zm-27.7 59.7c-5.1-13-8.9-30.5-11.2-52.6.8-2.4 1.8-4.7 3-7.1H502c-1.7 25.3-5.8 45.1-12.5 59.7zM921.6 199.3c-5.2-10.2-15.8-27.9-24.4-40.8l6.4-3.2c8.8 12.9 19.6 30.1 24.7 39.7l-6.7 4.3zM826.1 234.8l2-6.7c-24.1-3.6-44.9-10.5-62.4-20.7 18.8-12.4 34-28.8 43.3-50.7l-5-3.3-1.6.3h-40.5v-28.1h61.5V118h-61.5V91.7h-7.5V118h-61.3v7.6h61.3v28.1h-41.7v7.5c8.9 18.8 22.6 34.3 39.1 45.9-18.5 10.4-40.2 17.2-62.6 21.3l2.2 7.1c0 .1.1.3.2.4 23.9-4.8 47.3-12.4 67.1-24.1 18.6 11.6 41.1 19.4 67.1 23.4 0 0 .2-.2.3-.4m-104.5-73.6h76.3c-8.8 17.7-22.4 31.2-39.1 41.9-16.1-11-28.8-24.8-37.2-41.9M881.1 92.8c-9.3 25.1-24.1 49.2-40.2 65.4l3.2 8.1c.1.1.2.3.2.4 6.7-6.7 13-14.7 18.9-23.4v92.4h7.5V131.6c6.7-11.5 12.7-23.7 17.5-36.5l-7.1-2.3z"/>
    <path fill="#4D4D4D" d="M958.9 127.7V93.6h-7.5v34.1h-65.6v7.7h65.6V224c0 3.7-1.3 4.6-4.9 4.9-2.9.1-5.9.8-14.1.9v6.7c11.1.1 14.8-.1 19.1-1.3 5-1.3 7.4-3.8 7.4-11.3v-88.4H980v-7.7l-21.1-.1z"/>
  </g>
</svg>

<?xml version="1.0" encoding="UTF-8"?>
<svg width="980px" height="265px" viewBox="0 0 980 265" version="1.1" xmlns="http://www.w3.org/2000/svg" xmlns:xlink="http://www.w3.org/1999/xlink">
    <!-- Generator: Sketch 50 (54983) - http://www.bohemiancoding.com/sketch -->
    <title>微信支付</title>
    <desc>Created with Sketch.</desc>
    <defs></defs>
    <g id="Page-1" stroke="none" stroke-width="1" fill="none" fill-rule="evenodd">
        <g id="微信支付" fill-rule="nonzero">
            <path d="M108.9,167 C107.5,167.7 106,168.1 104.4,168.1 C100.7,168.1 97.4,166 95.7,163 L95,161.6 L67.8,101.8 C67.5,101.1 67.3,100.4 67.3,99.7 C67.3,96.9 69.5,94.7 72.3,94.7 C73.4,94.7 74.5,95.1 75.3,95.7 L107.5,118.6 C109.9,120.1 112.7,121 115.7,121 C117.5,121 119.2,120.7 120.8,120.1 L272,52.8 C244.9,20.9 200.3,-4.77089613e-15 149.7,-4.77089613e-15 C67,-0.1 0,55.8 0,124.7 C0,162.3 20.2,196.1 51.7,219 C54.2,220.8 55.9,223.8 55.9,227.1 C55.9,228.2 55.7,229.2 55.4,230.3 C52.9,239.7 48.8,254.8 48.7,255.5 C48.4,256.7 47.9,257.9 47.9,259.1 C47.9,261.9 50.1,264.1 52.9,264.1 C54,264.1 54.9,263.7 55.8,263.2 L88.6,244.3 C91.1,242.9 93.7,242 96.5,242 C98,242 99.5,242.2 100.9,242.7 C116.2,247.1 132.7,249.5 149.8,249.5 C232.5,249.5 299.5,193.7 299.5,124.8 C299.5,103.9 293.3,84.3 282.5,67 L110,166.4 L108.9,167 Z" id="Shape" fill="#1AAD19"></path>
            <path d="M579.7,138.3 L663.6,138.3 L663.6,145.4 L579.7,145.4 L579.7,138.3 Z M579.7,161.9 L663.6,161.9 L663.6,169.6 L579.7,169.6 L579.7,161.9 Z M581.9,235.6 L661.5,235.6 L661.5,190.4 L581.9,190.4 L581.9,235.6 Z M653.8,228.5 L589.5,228.5 L589.5,197.5 L653.8,197.5 L653.8,228.5 Z M561.4,94.6 C553.9,121 543.3,144.2 529.5,164.3 L533.7,171.6 C538.6,164.4 543.5,156.2 548.4,147.2 L548.4,236.2 L556.1,236.2 L556.1,131.2 C561,120.7 565.1,109.9 568.5,98.7 L561.4,94.6 Z M622.3,114.1 L628.3,110.6 C627.1,107.9 622.1,97.5 620.5,94 L613.4,98.1 C615.9,102.8 618.3,107.6 620.5,112.3 C620.9,113.1 621.1,113.7 621.1,114.1 L571.5,114.1 L571.5,121.8 L672.6,121.8 L672.6,114.1 L622.3,114.1 Z M432.8,96.6 L439.9,96.6 L439.9,134.4 L454.7,134.4 L454.7,107.8 L461.8,107.8 L461.8,141.5 L410.4,141.5 L410.4,107.8 L417.5,107.8 L417.5,134.4 L432.9,134.4 L432.9,96.6 L432.8,96.6 Z M412.7,156.9 L458.2,156.9 L458.2,164 L412.7,164 L412.7,156.9 Z M464.6,198.1 L452.8,208.2 L452.8,179.4 L414.4,179.4 L414.4,190.6 C415.5,206.5 411.6,217.7 402.6,224.2 L406.7,231.3 C417.7,222.2 422.8,209.6 422,193.5 L422,186.4 L445.6,186.4 L445.6,203.5 C445.3,209.3 445,211.2 443,214.1 L447.4,221.8 C451.3,218.6 458.2,212.8 468,204.1 L464.6,198.1 Z M399.5,95.2 C392.2,110.2 383.3,122.5 373,132.2 L377.3,139.7 C389.1,127.9 398.7,114.3 406.2,99 L399.5,95.2 Z M398.5,133.9 C391.4,151.5 382.2,166.8 370.9,179.8 L375,186.9 C379.7,181.4 384.1,175.8 388.4,170 L388.4,236.2 L395.5,236.2 L395.5,158.2 C399,152 402.3,145.3 405.4,137.9 L398.5,133.9 Z" id="Shape" fill="#4D4D4D"></path>
            <path d="M517.2,129.7 L517.2,122.6 L483.5,122.6 C486.4,114 489.8,103.7 490.9,94.8 L483.5,94.8 C478.6,118 471.2,137.5 461.5,153.4 L466,161.2 C466.8,159.6 467.9,157.5 469.3,154.6 C470.9,151.8 472.1,149.7 472.8,148.1 C475.2,169 479.3,185.5 485.2,197.7 C479.6,207.5 471,217.4 459.7,227.5 L464,234.9 C476.2,223.5 484.5,213.6 488.8,205.4 C493.9,214.7 502.6,225.6 512.3,235.4 L516.6,227.9 C506.5,218.3 497.8,207.6 493,198.3 C501.7,182.5 507,159.7 509,129.7 L517.2,129.7 Z M489.5,189.4 C484.4,176.4 480.6,158.9 478.3,136.8 C479.1,134.4 480.1,132.1 481.3,129.7 L502,129.7 C500.3,155 496.2,174.8 489.5,189.4 Z M921.6,199.3 C916.4,189.1 905.8,171.4 897.2,158.5 L903.6,155.3 C912.4,168.2 923.2,185.4 928.3,195 L921.6,199.3 Z M826.1,234.8 L828.1,228.1 C804,224.5 783.2,217.6 765.7,207.4 C784.5,195 799.7,178.6 809,156.7 L804,153.4 L802.4,153.7 L761.9,153.7 L761.9,125.6 L823.4,125.6 L823.4,118 L761.9,118 L761.9,91.7 L754.4,91.7 L754.4,118 L693.1,118 L693.1,125.6 L754.4,125.6 L754.4,153.7 L712.7,153.7 L712.7,161.2 C721.6,180 735.3,195.5 751.8,207.1 C733.3,217.5 711.6,224.3 689.2,228.4 L691.4,235.5 C691.4,235.6 691.5,235.8 691.6,235.9 C715.5,231.1 738.9,223.5 758.7,211.8 C777.3,223.4 799.8,231.2 825.8,235.2 C825.8,235.2 826,235 826.1,234.8 Z M721.6,161.2 L797.9,161.2 C789.1,178.9 775.5,192.4 758.8,203.1 C742.7,192.1 730,178.3 721.6,161.2 Z M881.1,92.8 C871.8,117.9 857,142 840.9,158.2 L844.1,166.3 C844.2,166.4 844.3,166.6 844.3,166.7 C851,160 857.3,152 863.2,143.3 L863.2,235.7 L870.7,235.7 L870.7,131.6 C877.4,120.1 883.4,107.9 888.2,95.1 L881.1,92.8 Z" id="Shape" fill="#4D4D4D"></path>
            <path d="M958.9,127.7 L958.9,93.6 L951.4,93.6 L951.4,127.7 L885.8,127.7 L885.8,135.4 L951.4,135.4 L951.4,224 C951.4,227.7 950.1,228.6 946.5,228.9 C943.6,229 940.6,229.7 932.4,229.8 L932.4,236.5 C943.5,236.6 947.2,236.4 951.5,235.2 C956.5,233.9 958.9,231.4 958.9,223.9 L958.9,135.5 L980,135.5 L980,127.8 L958.9,127.7 Z" id="Shape" fill="#4D4D4D"></path>
        </g>
    </g>
</svg>
